X: 4357
T: Bold Doherty
R: jig
M: 6/8
K: Eminor
EFG ABc|B2E GAB|c2A BcB|AGE EB,E|
EFG ABc|B2E GAB|c2A BcB|1 AGE E2B:|2 AGE E2A||
B2e edB|dBG ABc|B2e edB|dBA A2A|
B2e edB|dBA GAB|c2A BcB|AGE E2A|
B2e edB|dBG ABc|B2e edB|dBA A2A|
G2g gfe|dBA GAB|c2A BcB|AGE E2B||

